www/assets/icons/quickreply.svg

<svg xmlns="http://www.w3.org/2000/svg" width="24" height="24" viewBox="0 0 24 24" fill='currentColor'><path d="M21.75 3.5c0-1.1-.9-2-2-2h-16c-1.1 0-1.99.9-1.99 2l-.01 18 4-4h9v-8h7z"/><path d="M22.25 15.5h-2.2l1.7-4h-5v6h2v5z"/></svg>

<svg width="24" height="24" viewBox="0 0 24 24" xmlns="http://www.w3.org/2000/svg" fill='currentColor'><path d="M21.75 3.5C21.75 2.4 20.85 1.5 19.75 1.5H3.75C2.65 1.5 1.76 2.4 1.76 3.5L1.75 21.5L5.75 17.5H14.75V9.5H21.75V3.5Z"/><path d="M22.25 15.5H20.05L21.75 11.5H16.75V17.5H18.75V22.5L22.25 15.5Z"/></svg>
